assets/fritz/original.svg

<svg fill="#e2001a" viewBox="0 0 24 24" xmlns="http://www.w3.org/2000/svg"><path d="m13.495 19.183 3.875 4.817 4.817-3.903-3.875-4.817zm10.076-18.491-7.474-.581-.914 15.003 6.118.221zm-16.609 4.872v4.097l5.62-.055v5.37h-5.566v8.055h-6.586v-22.754l12.594-.277v5.51z"/></svg>

<svg xmlns="http://www.w3.org/2000/svg" fill="#e2001a" viewBox="0 0 24 24"><path d="M13.495 19.183 17.37 24l4.817-3.903-3.875-4.817zM23.571.692 16.097.111l-.914 15.003 6.118.221zM6.962 5.564v4.097l5.62-.055v5.37H7.016v8.055H.43V.277L13.024 0v5.51z"/></svg>
